dist/img/logo/linkden.svg

<svg width="31" height="31" viewBox="0 0 31 31" fill="none" xmlns="http://www.w3.org/2000/svg">
<path fill-rule="evenodd" clip-rule="evenodd" d="M15.2994 30.7595C23.7059 30.7595 30.5207 23.9447 30.5207 15.5382C30.5207 7.1317 23.7059 0.316895 15.2994 0.316895C6.89293 0.316895 0.078125 7.1317 0.078125 15.5382C0.078125 23.9447 6.89293 30.7595 15.2994 30.7595ZM8.91692 12.706H11.8217V22.1803H8.91692V12.706ZM10.3849 8.03134C10.7248 8.02725 11.0581 8.12469 11.3423 8.31119C11.6265 8.4977 11.8485 8.76478 11.98 9.07822C12.1115 9.39166 12.1464 9.73721 12.0803 10.0706C12.0142 10.404 11.8501 10.7101 11.6091 10.9497C11.368 11.1893 11.0608 11.3515 10.727 11.4156C10.3932 11.4796 10.0479 11.4425 9.73526 11.3091C9.42264 11.1757 9.15695 10.952 8.97221 10.6667C8.78747 10.3814 8.69209 10.0474 8.69828 9.70756C8.70373 9.26289 8.88351 8.83812 9.19893 8.52464C9.51435 8.21117 9.94022 8.03404 10.3849 8.03134ZM16.5378 12.7059H13.706V22.1906H16.6523V17.5055C16.6523 16.2666 16.8918 15.0692 18.4223 15.0692C19.9527 15.0692 19.9527 16.5372 19.9527 17.5784V22.1906H22.8575V16.9849C22.8575 14.4342 22.3057 12.4768 19.328 12.4768C18.7695 12.4574 18.216 12.5882 17.7252 12.8555C17.2344 13.1229 16.8244 13.5171 16.5378 13.9969V12.7059Z" fill="white"/>
</svg>

<svg width="31" height="31" viewBox="0 0 31 31" fill="none" xmlns="http://www.w3.org/2000/svg"><path fill-rule="evenodd" clip-rule="evenodd" d="M15.3 30.76c8.406 0 15.22-6.815 15.22-15.222C30.52 7.132 23.707.317 15.3.317 6.892.317.077 7.132.077 15.538c0 8.407 6.815 15.221 15.221 15.221zM8.916 12.706h2.905v9.474H8.917v-9.474zm1.468-4.675a1.707 1.707 0 11-1.687 1.677 1.697 1.697 0 011.687-1.677zm6.153 4.675h-2.832v9.485h2.946v-4.685c0-1.24.24-2.437 1.77-2.437s1.53 1.468 1.53 2.51v4.612h2.905v-5.206c0-2.55-.551-4.508-3.529-4.508a3.124 3.124 0 00-2.79 1.52v-1.291z" fill="#fff"/></svg>
